X:913
T:Anglais efter Per Nilsson Dahlberg
T:(SvL Skåne nr. 182)
S:efter Per Nilsson Dahlberg
S:Svenska Låtar Skåne nr 182
B:Svenska Låtar Skåne
R:Anglais
Z:Patrik Månsson, 2009-01-03
O:Nymö, Skåne
M:2/4
L:1/16
K:Bb
|: (ba) | b2(BA) B2(ba) | g2(ED) E2(gf) | (ed)cB (B{cB}A)GF |
FeAc B2 :: (FE) | (DF)Bd (ce)df | 
(=ef)gf (dB)AB | (DF)Bd (c_e)(ef) | (fe)cA B2 :|
(:musicend:)

(:music:)
